X: 2
T: The Maid On The Green
R: jig
M: 6/8
L: 1/8
K: Gmaj
d|gfg afd|~g3 ~a3|g2g eag|fdd d2a|bag agf|~g3 e2d|Bee dBA|BGF G2:|


Tune 1831	Setting 15263

